;FLAVOR:Marlin
;TIME:3567
;Filament used: 3.63307m, 0m
;Layer height: 0.2
;MINX:165.159
;MINY:123.55
;MINZ:0.4
;MAXX:234.841
;MAXY:176.45
;MAXZ:10
;Generated with Cura_SteamEngine 4.10.0
T0
M140 S50
M105
M190 S50
M104 S205
M105
M109 S205
M82 ;absolute extrusion mode
G28 ;Home
G1 Z15.0 F6000 ;Move the platform down 15mm
;Prime the extruder
G92 E0
G1 F200 E3
G92 E0
G92 E0
G92 E0
G1 F4200 E-8
;LAYER_COUNT:49
;LAYER:0
M107
G1 F600 Z0.8
G0 F1600 X165.82 Y125.336 Z0.8
;TYPE:SKIRT
G1 F600 Z0.4
G1 F4200 E0
G1 F1200 X166.162 Y124.89 E0.03552
G1 X166.564 Y124.497 E0.07104
G1 X167.017 Y124.165 E0.10654
G1 X167.513 Y123.901 E0.14204
G1 X168.041 Y123.71 E0.17753
G1 X168.591 Y123.595 E0.21304
G1 X169.423 Y123.551 E0.26569
G1 X230.24 Y123.55 E4.10897
G1 X230.938 Y123.56 E4.15309
G1 X231.497 Y123.608 E4.18854
G1 X232.045 Y123.735 E4.22409
G1 X232.568 Y123.939 E4.25957
G1 X233.058 Y124.214 E4.29507
G1 X233.503 Y124.556 E4.33054
G1 X233.896 Y124.958 E4.36607
G1 X234.228 Y125.412 E4.40161
G1 X234.491 Y125.908 E4.43709
G1 X234.682 Y126.436 E4.47257
G1 X234.796 Y126.986 E4.50807
G1 X234.838 Y127.712 E4.55402
G1 X234.84 Y127.825 E4.56116
G1 X234.841 Y171.817 E7.34121
G1 X234.831 Y172.544 E7.38715
G1 X234.783 Y173.104 E7.42267
G1 X234.656 Y173.651 E7.45816
G1 X234.453 Y174.175 E7.49367
G1 X234.178 Y174.665 E7.52918
G1 X233.836 Y175.111 E7.5647
G1 X233.435 Y175.504 E7.60018
G1 X232.981 Y175.835 E7.63568
G1 X232.485 Y176.099 E7.67119
G1 X231.957 Y176.291 E7.7067
G1 X231.407 Y176.405 E7.74219
G1 X230.577 Y176.449 E7.79472
G1 X169.766 Y176.45 E11.63762
G1 X169.068 Y176.441 E11.68173
G1 X168.508 Y176.394 E11.71725
G1 X167.961 Y176.267 E11.75273
G1 X167.437 Y176.065 E11.78822
G1 X166.947 Y175.79 E11.82373
G1 X166.501 Y175.449 E11.85921
G1 X166.108 Y175.047 E11.89474
G1 X165.775 Y174.594 E11.93027
G1 X165.511 Y174.099 E11.96572
G1 X165.319 Y173.57 E12.00128
G1 X165.205 Y173.021 E12.03672
G1 X165.161 Y172.232 E12.08665
G1 X165.159 Y128.12 E14.87428
G1 X165.168 Y127.456 E14.91624
G1 X165.216 Y126.897 E14.9517
G1 X165.342 Y126.349 E14.98723
G1 X165.545 Y125.825 E15.02275
G1 X165.82 Y125.336 E15.0582
G0 F1600 X166.197 Y125.458
G1 F1200 X166.536 Y125.045 E15.09196
G1 X166.932 Y124.687 E15.1257
G1 X167.378 Y124.393 E15.15946
G1 X167.862 Y124.168 E15.19319
G1 X168.375 Y124.018 E15.22696
G1 X169.029 Y123.941 E15.26858
G1 X169.521 Y123.93 E15.29968
G1 X230.234 Y123.93 E19.13639
G1 X230.932 Y123.94 E19.1805
G1 X231.464 Y123.988 E19.21426
G1 X231.983 Y124.114 E19.24801
G1 X232.477 Y124.317 E19.28176
G1 X232.936 Y124.591 E19.31554
G1 X233.348 Y124.93 E19.34926
G1 X233.705 Y125.327 E19.383
G1 X234 Y125.772 E19.41674
G1 X234.224 Y126.257 E19.4505
G1 X234.373 Y126.77 E19.48426
G1 X234.45 Y127.408 E19.52487
G1 X234.46 Y127.825 E19.55123
G1 X234.461 Y171.812 E22.33095
G1 X234.451 Y172.539 E22.3769
G1 X234.403 Y173.071 E22.41066
G1 X234.277 Y173.59 E22.44441
G1 X234.075 Y174.084 E22.47813
G1 X233.802 Y174.543 E22.51188
G1 X233.463 Y174.956 E22.54565
G1 X233.066 Y175.313 E22.57939
G1 X232.62 Y175.608 E22.61318
G1 X232.136 Y175.832 E22.64688
G1 X231.623 Y175.982 E22.68066
G1 X230.97 Y176.059 E22.72221
G1 X230.479 Y176.07 E22.75325
G1 X169.771 Y176.07 E26.58964
G1 X169.073 Y176.061 E26.63376
G1 X168.541 Y176.014 E26.66751
G1 X168.022 Y175.888 E26.70126
G1 X167.527 Y175.687 E26.73502
G1 X167.069 Y175.413 E26.76875
G1 X166.656 Y175.075 E26.80247
G1 X166.298 Y174.678 E26.83625
G1 X166.003 Y174.233 E26.86999
G1 X165.778 Y173.749 E26.90372
G1 X165.628 Y173.236 E26.9375
G1 X165.55 Y172.581 E26.97918
G1 X165.54 Y172.133 E27.0075
G1 X165.539 Y128.126 E29.78849
G1 X165.548 Y127.462 E29.83046
G1 X165.595 Y126.93 E29.86421
G1 X165.721 Y126.411 E29.89796
G1 X165.923 Y125.916 E29.93174
G1 X166.197 Y125.458 E29.96547
G0 F1600 X166.573 Y125.587
G1 F1200 X166.908 Y125.209 E29.99739
G1 X167.299 Y124.89 E30.02928
G1 X167.735 Y124.635 E30.0612
G1 X168.206 Y124.453 E30.09311
G1 X168.699 Y124.348 E30.12496
G1 X169.442 Y124.311 E30.17197
G1 X230.229 Y124.31 E34.01336
G1 X230.927 Y124.32 E34.05747
G1 X231.429 Y124.367 E34.08934
G1 X231.918 Y124.493 E34.12125
G1 X232.381 Y124.695 E34.15317
G1 X232.806 Y124.967 E34.18506
G1 X233.183 Y125.302 E34.21693
G1 X233.503 Y125.693 E34.24886
G1 X233.757 Y126.129 E34.28074
G1 X233.938 Y126.6 E34.31263
G1 X234.044 Y127.094 E34.34456
G1 X234.079 Y127.734 E34.38506
G1 X234.081 Y171.807 E37.17022
G1 X234.071 Y172.534 E37.21617
G1 X234.024 Y173.036 E37.24803
G1 X233.898 Y173.525 E37.27994
G1 X233.697 Y173.988 E37.31184
G1 X233.426 Y174.414 E37.34375
G1 X233.09 Y174.791 E37.37566
G1 X232.7 Y175.111 E37.40754
G1 X232.263 Y175.365 E37.43948
G1 X231.793 Y175.547 E37.47133
G1 X231.299 Y175.652 E37.50325
G1 X230.558 Y175.689 E37.55013
G1 X169.776 Y175.69 E41.39121
G1 X169.078 Y175.681 E41.43532
G1 X168.575 Y175.634 E41.46725
G1 X168.086 Y175.509 E41.49914
G1 X167.623 Y175.308 E41.53104
G1 X167.197 Y175.037 E41.56295
G1 X166.82 Y174.702 E41.59482
G1 X166.5 Y174.312 E41.6267
G1 X166.245 Y173.876 E41.65862
G1 X166.063 Y173.405 E41.69053
G1 X165.957 Y172.912 E41.72239
G1 X165.921 Y172.213 E41.76662
G1 X165.919 Y128.131 E44.55235
G1 X165.928 Y127.467 E44.59432
G1 X165.975 Y126.964 E44.62624
G1 X166.1 Y126.475 E44.65814
G1 X166.302 Y126.012 E44.69006
G1 X166.573 Y125.587 E44.72191
G1 F4200 E36.72191
;MESH:ktRACK5.stl
G0 F1600 X169.693 Y128.084
G0 X188.787 Y158.147
G0 X189.896 Y159.487
G0 X191.165 Y160.678
G0 X192.574 Y161.702
G0 X194.098 Y162.541
G0 X195.717 Y163.181
G0 X197.083 Y163.532
G0 X199.126 Y163.892
G0 X199.132 Y163.793
;TYPE:WALL-INNER
G1 F4200 E44.72191
G1 F1200 X200 Y163.82 E44.77679
G1 X200.868 Y163.793 E44.83167
G1 X201.732 Y163.711 E44.88652
G1 X202.589 Y163.576 E44.94134
G1 X203.437 Y163.387 E44.99625
G1 X204.272 Y163.143 E45.05122
G1 X205.088 Y162.849 E45.10603
G1 X205.885 Y162.505 E45.16089
G1 X206.657 Y162.11 E45.21569
G1 X207.405 Y161.669 E45.27056
G1 X208.124 Y161.181 E45.32548
G1 X208.81 Y160.648 E45.38037
G1 X209.46 Y160.075 E45.43513
G1 X210.075 Y159.46 E45.4901
G1 X210.648 Y158.81 E45.54485
G1 X211.182 Y158.124 E45.59979
G1 X211.669 Y157.405 E45.65467
G1 X212.11 Y156.657 E45.70954
G1 X212.505 Y155.885 E45.76434
G1 X212.849 Y155.088 E45.8192
G1 X213.144 Y154.271 E45.87409
G1 X213.387 Y153.437 E45.92899
G1 X213.576 Y152.59 E45.98383
G1 X213.712 Y151.732 E46.03873
G1 X213.793 Y150.868 E46.09357
G1 X213.82 Y150 E46.14845
G1 X213.793 Y149.132 E46.20333
G1 X213.712 Y148.268 E46.25816
G1 X213.576 Y147.41 E46.31306
G1 X213.387 Y146.563 E46.3679
G1 X213.144 Y145.729 E46.4228
G1 X212.849 Y144.912 E46.47769
G1 X212.505 Y144.115 E46.53255
G1 X212.11 Y143.343 E46.58735
G1 X211.669 Y142.595 E46.64222
G1 X211.182 Y141.876 E46.6971
G1 X210.648 Y141.19 E46.75204
G1 X210.075 Y140.54 E46.8068
G1 X209.46 Y139.925 E46.86176
G1 X208.81 Y139.352 E46.91652
G1 X208.124 Y138.819 E46.97142
G1 X207.405 Y138.331 E47.02633
G1 X206.657 Y137.89 E47.0812
G1 X205.885 Y137.495 E47.136
G1 X205.088 Y137.151 E47.19086
G1 X204.272 Y136.857 E47.24567
G1 X203.437 Y136.613 E47.30065
G1 X202.59 Y136.424 E47.35549
G1 X201.732 Y136.288 E47.41039
G1 X200.868 Y136.207 E47.46522
G1 X200 Y136.18 E47.5201
G1 X199.132 Y136.207 E47.57498
G1 X198.268 Y136.288 E47.62982
G1 X197.41 Y136.424 E47.68472
G1 X196.563 Y136.613 E47.73956
G1 X195.729 Y136.857 E47.79448
G1 X194.912 Y137.151 E47.84935
G1 X194.115 Y137.495 E47.9042
G1 X193.343 Y137.89 E47.959
G1 X192.595 Y138.331 E48.01388
G1 X191.876 Y138.819 E48.06879
G1 X191.19 Y139.352 E48.12369
G1 X190.54 Y139.925 E48.17845
G1 X189.925 Y140.54 E48.23341
G1 X189.352 Y141.19 E48.28817
G1 X188.819 Y141.876 E48.34307
G1 X188.331 Y142.595 E48.39798
G1 X187.89 Y143.343 E48.45285
G1 X187.495 Y144.115 E48.50765
G1 X187.151 Y144.912 E48.56251
G1 X186.857 Y145.729 E48.61738
G1 X186.613 Y146.563 E48.6723
G1 X186.424 Y147.41 E48.72714
G1 X186.288 Y148.268 E48.78204
G1 X186.207 Y149.132 E48.83687
G1 X186.18 Y150 E48.89175
G1 X186.207 Y150.868 E48.94663
G1 X186.288 Y151.732 E49.00147
G1 X186.424 Y152.59 E49.05637
G1 X186.613 Y153.437 E49.11121
G1 X186.857 Y154.271 E49.16612
G1 X187.151 Y155.088 E49.221
G1 X187.495 Y155.885 E49.27585
G1 X187.89 Y156.657 E49.33065
G1 X188.331 Y157.405 E49.38553
G1 X188.819 Y158.124 E49.44044
G1 X189.352 Y158.81 E49.49534
G1 X189.925 Y159.46 E49.5501
G1 X190.54 Y160.075 E49.60506
G1 X191.19 Y160.648 E49.65982
G1 X191.876 Y161.181 E49.71472
G1 X192.595 Y161.669 E49.76963
G1 X193.343 Y162.11 E49.8245
G1 X194.115 Y162.505 E49.8793
G1 X194.912 Y162.849 E49.93416
G1 X195.729 Y163.143 E49.98903
G1 X196.563 Y163.387 E50.04395
G1 X197.411 Y163.576 E50.09885
G1 X198.268 Y163.711 E50.15367
G1 X199.132 Y163.793 E50.20852
G0 F1600 X199.155 Y163.424
;TYPE:WALL-OUTER
G1 F1200 X200 Y163.45 E50.26194
G1 X200.845 Y163.424 E50.31537
G1 X201.686 Y163.344 E50.36875
G1 X202.52 Y163.212 E50.42211
G1 X203.345 Y163.028 E50.47553
G1 X204.157 Y162.791 E50.52899
G1 X204.952 Y162.505 E50.58238
G1 X205.727 Y162.17 E50.63573
G1 X206.479 Y161.786 E50.68909
G1 X207.207 Y161.356 E50.74252
G1 X207.906 Y160.881 E50.79593
G1 X208.574 Y160.363 E50.84935
G1 X209.207 Y159.805 E50.90267
G1 X209.805 Y159.207 E50.95612
G1 X210.363 Y158.574 E51.00944
G1 X210.882 Y157.906 E51.0629
G1 X211.356 Y157.207 E51.11627
G1 X211.786 Y156.479 E51.1697
G1 X212.17 Y155.727 E51.22306
G1 X212.505 Y154.952 E51.27642
G1 X212.792 Y154.156 E51.32989
G1 X213.028 Y153.345 E51.38327
G1 X213.212 Y152.521 E51.43662
G1 X213.345 Y151.686 E51.49005
G1 X213.424 Y150.845 E51.54343
G1 X213.45 Y150 E51.59686
G1 X213.424 Y149.155 E51.65028
G1 X213.345 Y148.314 E51.70366
G1 X213.212 Y147.479 E51.75709
G1 X213.028 Y146.655 E51.81045
G1 X212.792 Y145.844 E51.86383
G1 X212.505 Y145.048 E51.9173
G1 X212.17 Y144.273 E51.97065
G1 X211.786 Y143.521 E52.02401
G1 X211.356 Y142.793 E52.07744
G1 X210.882 Y142.094 E52.13081
G1 X210.363 Y141.426 E52.18427
G1 X209.805 Y140.793 E52.2376
G1 X209.207 Y140.195 E52.29104
G1 X208.574 Y139.637 E52.34437
G1 X207.906 Y139.119 E52.39778
G1 X207.207 Y138.644 E52.45119
G1 X206.479 Y138.214 E52.50462
G1 X205.727 Y137.83 E52.55798
G1 X204.952 Y137.495 E52.61134
G1 X204.157 Y137.209 E52.66473
G1 X203.345 Y136.972 E52.71818
G1 X202.521 Y136.788 E52.77154
G1 X201.686 Y136.655 E52.82497
G1 X200.845 Y136.576 E52.87835
G1 X200 Y136.55 E52.93178
G1 X199.155 Y136.576 E52.9852
G1 X198.314 Y136.655 E53.03858
G1 X197.479 Y136.788 E53.09201
G1 X196.655 Y136.972 E53.14537
G1 X195.844 Y137.209 E53.19876
G1 X195.048 Y137.495 E53.25221
G1 X194.273 Y137.83 E53.30557
G1 X193.521 Y138.214 E53.35893
G1 X192.793 Y138.644 E53.41236
G1 X192.094 Y139.119 E53.46576
G1 X191.426 Y139.637 E53.51918
G1 X190.793 Y140.195 E53.57251
G1 X190.195 Y140.793 E53.62595
G1 X189.637 Y141.426 E53.67928
G1 X189.119 Y142.094 E53.7327
G1 X188.644 Y142.793 E53.7861
G1 X188.214 Y143.521 E53.83953
G1 X187.83 Y144.273 E53.89289
G1 X187.495 Y145.048 E53.94625
G1 X187.209 Y145.844 E53.9997
G1 X186.972 Y146.655 E54.05309
G1 X186.788 Y147.479 E54.10645
G1 X186.655 Y148.314 E54.15988
G1 X186.576 Y149.155 E54.21326
G1 X186.55 Y150 E54.26668
G1 X186.576 Y150.845 E54.32011
G1 X186.655 Y151.686 E54.37349
G1 X186.788 Y152.521 E54.42692
G1 X186.972 Y153.345 E54.48028
G1 X187.209 Y154.156 E54.53367
G1 X187.495 Y154.952 E54.58712
G1 X187.83 Y155.727 E54.64048
G1 X188.214 Y156.479 E54.69384
G1 X188.644 Y157.207 E54.74727
G1 X189.119 Y157.906 E54.80067
G1 X189.637 Y158.574 E54.85409
G1 X190.195 Y159.207 E54.90742
G1 X190.793 Y159.805 E54.96086
G1 X191.426 Y160.363 E55.01419
G1 X192.094 Y160.881 E55.06761
G1 X192.793 Y161.356 E55.12101
G1 X193.521 Y161.786 E55.17444
G1 X194.273 Y162.17 E55.2278
G1 X195.048 Y162.505 E55.28116
G1 X195.844 Y162.791 E55.33461
G1 X196.655 Y163.028 E55.388
G1 X197.48 Y163.212 E55.44142
G1 X198.314 Y163.344 E55.49478
G1 X199.155 Y163.424 E55.54817
G0 F1600 X199.355 Y163.43
G0 X199.342 Y163.848
G0 X199.34 Y163.899
G0 X230.251 Y171.86
G0 X230.321 Y171.93
;TYPE:WALL-INNER
G1 F1200 X230.132 Y171.93 E55.56011
G1 X169.68 Y171.93 E59.38033
G1 X169.679 Y128.259 E62.14008
G1 X169.679 Y128.07 E62.15203
G1 X169.868 Y128.07 E62.15975
G1 X230.32 Y128.07 E65.97997
G1 X230.321 Y171.741 E68.73973
G1 X230.321 Y171.93 E68.74746
G0 F1600 X230.501 Y172.3
;TYPE:WALL-OUTER
G1 F1200 X169.31 Y172.3 E72.61438
G1 X169.309 Y127.89 E75.42083
G1 X169.309 Y127.7 E75.43284
G1 X169.499 Y127.7 E75.44061
G1 X230.69 Y127.7 E79.30753
G1 X230.691 Y172.11 E82.11399
G1 X230.691 Y172.3 E82.126
G1 X230.501 Y172.3 E82.13377
G0 F1600 X230.301 Y172.3
G0 X230.301 Y171.882
G0 X229.951 Y171.56
;TYPE:SKIN
G1 F1200 X170.05 Y171.56 E85.91917
G1 X170.049 Y128.44 E88.6441
G1 X229.95 Y128.44 E92.4295
G1 X229.951 Y171.56 E95.15444
G0 F1600 X211.482 Y158.342
G1 F1200 X211.982 Y157.603 E95.21082
G1 X212.435 Y156.836 E95.26712
G1 X212.84 Y156.043 E95.32339
G1 X213.193 Y155.224 E95.37975
G1 X213.496 Y154.386 E95.43606
G1 X213.745 Y153.529 E95.49246
G1 X213.94 Y152.66 E95.54874
G1 X214.08 Y151.779 E95.60511
G1 X214.163 Y150.891 E95.66147
G1 X214.19 Y150 E95.7178
G1 X214.163 Y149.109 E95.77413
G1 X214.08 Y148.221 E95.8305
G1 X213.94 Y147.34 E95.88687
G1 X213.745 Y146.471 E95.94315
G1 X213.496 Y145.614 E95.99955
G1 X213.193 Y144.776 E96.05586
G1 X212.84 Y143.957 E96.11222
G1 X212.435 Y143.164 E96.16849
G1 X211.982 Y142.397 E96.22478
G1 X211.482 Y141.658 E96.28117
G1 X210.933 Y140.954 E96.33758
G1 X210.345 Y140.287 E96.39377
G1 X209.713 Y139.655 E96.45026
G1 X209.046 Y139.067 E96.50645
G1 X208.342 Y138.519 E96.56283
G1 X207.603 Y138.018 E96.61925
G1 X206.836 Y137.565 E96.67554
G1 X206.043 Y137.16 E96.73181
G1 X205.224 Y136.807 E96.78817
G1 X204.387 Y136.505 E96.8444
G1 X203.529 Y136.255 E96.90088
G1 X202.66 Y136.06 E96.95716
G1 X201.779 Y135.92 E97.01353
G1 X200.891 Y135.837 E97.06989
G1 X200 Y135.81 E97.12622
G1 X199.109 Y135.837 E97.18255
G1 X198.221 Y135.92 E97.23892
G1 X197.34 Y136.06 E97.29529
G1 X196.471 Y136.255 E97.35157
G1 X195.614 Y136.505 E97.40798
G1 X194.776 Y136.807 E97.46427
G1 X193.957 Y137.16 E97.52063
G1 X193.164 Y137.565 E97.5769
G1 X192.397 Y138.018 E97.6332
G1 X191.658 Y138.519 E97.68962
G1 X190.954 Y139.067 E97.746
G1 X190.287 Y139.655 E97.80219
G1 X189.655 Y140.287 E97.85867
G1 X189.067 Y140.954 E97.91486
G1 X188.519 Y141.658 E97.97124
G1 X188.018 Y142.397 E98.02766
G1 X187.565 Y143.164 E98.08395
G1 X187.16 Y143.957 E98.14022
G1 X186.807 Y144.776 E98.19658
G1 X186.505 Y145.614 E98.25287
G1 X186.255 Y146.471 E98.30929
G1 X186.06 Y147.34 E98.36557
G1 X185.92 Y148.221 E98.42194
G1 X185.837 Y149.109 E98.4783
G1 X185.81 Y150 E98.53463
G1 X185.837 Y150.891 E98.59096
G1 X185.92 Y151.779 E98.64733
G1 X186.06 Y152.66 E98.7037
G1 X186.255 Y153.529 E98.75998
G1 X186.505 Y154.386 E98.81639
G1 X186.807 Y155.224 E98.87269
G1 X187.16 Y156.043 E98.92904
G1 X187.565 Y156.836 E98.98531
G1 X188.018 Y157.603 E99.04161
G1 X188.519 Y158.342 E99.09803
G1 X189.067 Y159.046 E99.15441
G1 X189.655 Y159.713 E99.2106
G1 X190.287 Y160.345 E99.26708
G1 X190.954 Y160.933 E99.32327
G1 X191.658 Y161.481 E99.37965
G1 X192.397 Y161.982 E99.43607
G1 X193.164 Y162.435 E99.49236
G1 X193.957 Y162.84 E99.54863
G1 X194.776 Y163.193 E99.60499
G1 X195.614 Y163.495 E99.66128
G1 X196.471 Y163.745 E99.7177
G1 X197.342 Y163.94 E99.7741
G1 X198.221 Y164.079 E99.83034
G1 X199.109 Y164.163 E99.88671
G1 X200 Y164.19 E99.94304
G1 X200.891 Y164.163 E99.99937
G1 X201.779 Y164.079 E100.05574
G1 X202.658 Y163.94 E100.11198
G1 X203.529 Y163.745 E100.16838
G1 X204.387 Y163.495 E100.22486
G1 X205.224 Y163.193 E100.28109
G1 X206.043 Y162.84 E100.33745
G1 X206.836 Y162.435 E100.39372
G1 X207.603 Y161.982 E100.45001
G1 X208.342 Y161.481 E100.50643
G1 X209.046 Y160.933 E100.56281
G1 X209.713 Y160.345 E100.619
G1 X210.345 Y159.713 E100.67548
G1 X210.933 Y159.046 E100.73167
G1 X211.482 Y158.342 E100.78809
G0 F1600 X229.778 Y128.747
G1 F1200 X229.642 Y128.61 E100.80029
G0 F1600 X229.104 Y128.61
G1 F1200 X229.778 Y129.284 E100.86052
G0 F1600 X229.778 Y129.821
G1 F1200 X228.567 Y128.61 E100.96875
G0 F1600 X228.029 Y128.61
G1 F1200 X229.778 Y130.359 E101.12506
G0 F1600 X229.778 Y130.896
G1 F1200 X227.492 Y128.61 E101.32936
G0 F1600 X226.955 Y128.61
G1 F1200 X229.778 Y131.434 E101.5817
