;FLAVOR:Marlin
;TIME:3899
;Filament used: 4.14426m, 0m
;Layer height: 0.2
;MINX:165.449
;MINY:123.777
;MINZ:0.4
;MAXX:235.132
;MAXY:176.677
;MAXZ:10
;Generated with Cura_SteamEngine 4.10.0
T0
M140 S50
M105
M190 S50
M104 S205
M105
M109 S205
M82 ;absolute extrusion mode
G28 ;Home
G1 Z15.0 F6000 ;Move the platform down 15mm
;Prime the extruder
G92 E0
G1 F200 E3
G92 E0
G92 E0
G92 E0
G1 F4200 E-8
;LAYER_COUNT:49
;LAYER:0
M107
G1 F600 Z0.8
G0 F1600 X166.11 Y125.563 Z0.8
;TYPE:SKIRT
G1 F600 Z0.4
G1 F4200 E0
G1 F1200 X166.452 Y125.117 E0.03552
G1 X166.854 Y124.724 E0.07104
G1 X167.307 Y124.392 E0.10654
G1 X167.803 Y124.128 E0.14204
G1 X168.331 Y123.937 E0.17753
G1 X168.881 Y123.822 E0.21304
G1 X169.713 Y123.778 E0.26569
G1 X230.531 Y123.777 E4.10903
G1 X231.229 Y123.787 E4.15315
G1 X231.788 Y123.835 E4.1886
G1 X232.336 Y123.962 E4.22415
G1 X232.859 Y124.166 E4.25963
G1 X233.349 Y124.441 E4.29514
G1 X233.794 Y124.783 E4.3306
G1 X234.187 Y125.185 E4.36613
G1 X234.519 Y125.639 E4.40167
G1 X234.782 Y126.135 E4.43715
G1 X234.973 Y126.663 E4.47263
G1 X235.087 Y127.213 E4.50813
G1 X235.129 Y127.939 E4.55409
G1 X235.131 Y128.052 E4.56123
G1 X235.132 Y172.044 E7.34127
G1 X235.122 Y172.771 E7.38722
G1 X235.074 Y173.331 E7.42273
G1 X234.947 Y173.878 E7.45822
G1 X234.744 Y174.402 E7.49373
G1 X234.469 Y174.892 E7.52924
G1 X234.127 Y175.338 E7.56476
G1 X233.726 Y175.731 E7.60024
G1 X233.272 Y176.062 E7.63575
G1 X232.776 Y176.326 E7.67125
G1 X232.248 Y176.518 E7.70676
G1 X231.698 Y176.632 E7.74225
G1 X230.868 Y176.676 E7.79478
G1 X170.056 Y176.677 E11.63775
G1 X169.358 Y176.668 E11.68186
G1 X168.798 Y176.621 E11.71737
G1 X168.251 Y176.494 E11.75286
G1 X167.727 Y176.292 E11.78835
G1 X167.237 Y176.017 E11.82386
G1 X166.791 Y175.676 E11.85934
G1 X166.398 Y175.274 E11.89486
G1 X166.065 Y174.821 E11.93039
G1 X165.801 Y174.326 E11.96585
G1 X165.609 Y173.797 E12.00141
G1 X165.495 Y173.248 E12.03684
G1 X165.451 Y172.459 E12.08678
G1 X165.449 Y128.347 E14.87441
G1 X165.458 Y127.683 E14.91637
G1 X165.506 Y127.124 E14.95183
G1 X165.632 Y126.576 E14.98736
G1 X165.835 Y126.052 E15.02287
G1 X166.11 Y125.563 E15.05833
G0 F1600 X166.487 Y125.685
G1 F1200 X166.826 Y125.272 E15.09209
G1 X167.222 Y124.914 E15.12583
G1 X167.668 Y124.62 E15.15958
G1 X168.152 Y124.395 E15.19331
G1 X168.665 Y124.245 E15.22709
G1 X169.319 Y124.168 E15.2687
G1 X169.811 Y124.157 E15.2998
G1 X230.525 Y124.157 E19.13658
G1 X231.223 Y124.167 E19.18069
G1 X231.755 Y124.215 E19.21445
G1 X232.274 Y124.341 E19.2482
G1 X232.768 Y124.544 E19.28195
G1 X233.227 Y124.818 E19.31573
G1 X233.639 Y125.157 E19.34945
G1 X233.996 Y125.554 E19.38319
G1 X234.291 Y125.999 E19.41693
G1 X234.515 Y126.484 E19.45069
G1 X234.664 Y126.997 E19.48445
G1 X234.741 Y127.635 E19.52506
G1 X234.751 Y128.052 E19.55142
G1 X234.752 Y172.039 E22.33114
G1 X234.742 Y172.766 E22.37709
G1 X234.694 Y173.298 E22.41085
G1 X234.568 Y173.817 E22.4446
G1 X234.366 Y174.311 E22.47832
G1 X234.093 Y174.77 E22.51207
G1 X233.754 Y175.183 E22.54584
G1 X233.357 Y175.54 E22.57958
G1 X232.911 Y175.835 E22.61337
G1 X232.427 Y176.059 E22.64707
G1 X231.914 Y176.209 E22.68085
G1 X231.261 Y176.286 E22.7224
G1 X230.77 Y176.297 E22.75344
G1 X170.061 Y176.297 E26.5899
G1 X169.363 Y176.288 E26.63401
G1 X168.831 Y176.241 E26.66776
G1 X168.312 Y176.115 E26.70151
G1 X167.817 Y175.914 E26.73527
G1 X167.359 Y175.64 E26.769
G1 X166.946 Y175.302 E26.80272
G1 X166.588 Y174.905 E26.83651
G1 X166.293 Y174.46 E26.87025
G1 X166.068 Y173.976 E26.90398
G1 X165.918 Y173.463 E26.93775
G1 X165.84 Y172.808 E26.97944
G1 X165.83 Y172.36 E27.00775
G1 X165.829 Y128.353 E29.78874
G1 X165.838 Y127.689 E29.83071
G1 X165.885 Y127.157 E29.86446
G1 X166.011 Y126.638 E29.89821
G1 X166.213 Y126.143 E29.932
G1 X166.487 Y125.685 E29.96572
G0 F1600 X166.863 Y125.814
G1 F1200 X167.198 Y125.436 E29.99764
G1 X167.589 Y125.117 E30.02953
G1 X168.025 Y124.862 E30.06145
G1 X168.496 Y124.68 E30.09336
G1 X168.989 Y124.575 E30.12521
G1 X169.732 Y124.538 E30.17222
G1 X230.52 Y124.537 E34.01368
G1 X231.218 Y124.547 E34.05779
G1 X231.72 Y124.594 E34.08965
G1 X232.209 Y124.72 E34.12156
G1 X232.672 Y124.922 E34.15349
G1 X233.097 Y125.194 E34.18537
G1 X233.474 Y125.529 E34.21724
G1 X233.794 Y125.92 E34.24917
G1 X234.048 Y126.356 E34.28106
G1 X234.229 Y126.827 E34.31295
G1 X234.335 Y127.321 E34.34488
G1 X234.37 Y127.961 E34.38538
G1 X234.372 Y172.034 E37.17054
G1 X234.362 Y172.761 E37.21649
G1 X234.315 Y173.263 E37.24835
G1 X234.189 Y173.752 E37.28026
G1 X233.988 Y174.215 E37.31216
G1 X233.717 Y174.641 E37.34406
G1 X233.381 Y175.018 E37.37598
G1 X232.991 Y175.338 E37.40786
G1 X232.554 Y175.592 E37.4398
G1 X232.084 Y175.774 E37.47165
G1 X231.59 Y175.879 E37.50357
G1 X230.849 Y175.916 E37.55045
G1 X170.066 Y175.917 E41.39159
G1 X169.368 Y175.908 E41.4357
G1 X168.865 Y175.861 E41.46763
G1 X168.376 Y175.736 E41.49952
G1 X167.913 Y175.535 E41.53142
G1 X167.487 Y175.264 E41.56332
G1 X167.11 Y174.929 E41.5952
G1 X166.79 Y174.539 E41.62708
G1 X166.535 Y174.103 E41.659
G1 X166.353 Y173.632 E41.6909
G1 X166.247 Y173.139 E41.72277
G1 X166.211 Y172.44 E41.767
G1 X166.209 Y128.358 E44.55273
G1 X166.218 Y127.694 E44.5947
G1 X166.265 Y127.191 E44.62662
G1 X166.39 Y126.702 E44.65852
G1 X166.592 Y126.239 E44.69044
G1 X166.863 Y125.814 E44.72229
G1 F4200 E36.72229
G0 F1600 X189.44 Y142.33
;TYPE:SUPPORT
G1 F4200 E44.72229
G1 F1200 X189.942 Y141.683 E44.77404
G1 X190.514 Y141.033 E44.82876
G1 X191.097 Y140.45 E44.88086
G1 X191.747 Y139.876 E44.93566
G1 X192.375 Y139.389 E44.98588
G1 X193.082 Y138.907 E45.03996
G1 X193.825 Y138.466 E45.09456
G1 X194.579 Y138.082 E45.14803
G1 X195.313 Y137.765 E45.19855
G1 X196.153 Y137.461 E45.25501
G1 X196.956 Y137.226 E45.30788
G1 X197.767 Y137.046 E45.36038
G1 X198.581 Y136.917 E45.41246
G1 X199.413 Y136.836 E45.46529
G1 X200.284 Y136.808 E45.52036
G1 X201.131 Y136.835 E45.57391
G1 X201.965 Y136.911 E45.62683
G1 X202.817 Y137.046 E45.68135
G1 X203.625 Y137.226 E45.73366
G1 X204.421 Y137.459 E45.78607
G1 X205.219 Y137.746 E45.83966
G1 X206.003 Y138.084 E45.89362
G1 X206.745 Y138.462 E45.94624
G1 X207.484 Y138.899 E46.00049
G1 X208.167 Y139.364 E46.05271
G1 X208.844 Y139.887 E46.10677
G1 X209.49 Y140.455 E46.16113
G1 X210.066 Y141.033 E46.2127
G1 X210.574 Y141.609 E46.26123
G1 X198.423 Y148.626 E47.14795
G1 X198.23 Y149.094 E47.17994
G1 X198.773 Y151.09 E47.31066
G1 X199.236 Y151.552 E47.35199
G1 X199.259 Y151.581 E47.35433
G1 X201.282 Y155.085 E47.61002
G1 X201.8 Y155.224 E47.64391
G1 X213.584 Y148.416 E48.50394
G1 X213.605 Y148.55 E48.51251
G1 X213.683 Y149.368 E48.56444
G1 X213.71 Y150.215 E48.61799
G1 X213.683 Y151.082 E48.6728
G1 X213.606 Y151.901 E48.72479
G1 X213.471 Y152.753 E48.7793
G1 X213.292 Y153.556 E48.83129
G1 X213.058 Y154.357 E48.88403
G1 X212.762 Y155.18 E48.9393
G1 X212.435 Y155.939 E48.99152
G1 X212.059 Y156.674 E49.0437
G1 X211.613 Y157.428 E49.09906
G1 X211.154 Y158.105 E49.15074
G1 X210.625 Y158.785 E49.20519
G1 X210.062 Y159.426 E49.2591
G1 X209.495 Y159.993 E49.30977
G1 X208.851 Y160.561 E49.36404
G1 X208.197 Y161.07 E49.41641
G1 X207.494 Y161.549 E49.47017
G1 X206.756 Y161.987 E49.5244
G1 X205.995 Y162.374 E49.57835
G1 X205.285 Y162.681 E49.62724
G1 X204.428 Y162.992 E49.68485
G1 X203.625 Y163.227 E49.73772
G1 X202.814 Y163.407 E49.79022
G1 X202 Y163.536 E49.8423
G1 X201.167 Y163.617 E49.89519
G1 X200.29 Y163.646 E49.95064
G1 X199.458 Y163.619 E50.00325
G1 X198.617 Y163.542 E50.05662
G1 X197.764 Y163.407 E50.11119
G1 X196.956 Y163.227 E50.16351
G1 X196.16 Y162.994 E50.21592
G1 X195.382 Y162.715 E50.26815
G1 X194.568 Y162.364 E50.32417
G1 X193.825 Y161.986 E50.37685
G1 X193.106 Y161.56 E50.42966
G1 X192.414 Y161.089 E50.48256
G1 X191.745 Y160.572 E50.53599
G1 X191.115 Y160.017 E50.58905
G1 X190.5 Y159.405 E50.64388
G1 X189.963 Y158.794 E50.69528
G1 X189.427 Y158.105 E50.75045
G1 X188.968 Y157.428 E50.80214
G1 X188.526 Y156.681 E50.85699
G1 X188.152 Y155.949 E50.90893
G1 X187.818 Y155.177 E50.96209
G1 X187.523 Y154.357 E51.01716
G1 X187.289 Y153.556 E51.06989
G1 X187.111 Y152.753 E51.12187
G1 X186.975 Y151.901 E51.17639
G1 X186.898 Y151.082 E51.22838
G1 X186.872 Y150.239 E51.28168
G1 X186.898 Y149.367 E51.33681
G1 X186.975 Y148.552 E51.38854
G1 X187.109 Y147.704 E51.44279
G1 X187.291 Y146.89 E51.4955
G1 X187.523 Y146.096 E51.54778
G1 X187.82 Y145.27 E51.60325
G1 X188.15 Y144.509 E51.65566
G1 X188.528 Y143.766 E51.70834
G1 X188.961 Y143.035 E51.76204
G1 X189.44 Y142.33 E51.8159
G1 F4200 E43.8159
G0 F1600 X193.275 Y139.19
G1 F4200 E51.8159
G1 F1200 X192.568 Y139.672 E51.86997
G1 X191.974 Y140.132 E51.91745
G1 X191.324 Y140.706 E51.97225
G1 X190.765 Y141.266 E52.02225
G1 X190.205 Y141.902 E52.0758
G1 X189.763 Y142.469 E52.12123
G1 X199.081 Y147.848 E52.80115
G1 X210.041 Y141.521 E53.60088
G1 X209.817 Y141.268 E53.62224
G1 X209.247 Y140.696 E53.67327
G1 X208.626 Y140.15 E53.72552
G1 X207.974 Y139.647 E53.77756
G1 X207.301 Y139.189 E53.829
G1 X206.571 Y138.757 E53.88261
G1 X205.86 Y138.395 E53.93303
G1 X205.095 Y138.065 E53.98568
G1 X204.314 Y137.784 E54.03813
G1 X203.534 Y137.555 E54.0895
G1 X202.763 Y137.383 E54.13942
G1 X201.912 Y137.249 E54.19386
G1 X201.12 Y137.177 E54.24412
G1 X200.284 Y137.15 E54.29698
G1 X199.5 Y137.175 E54.34655
G1 X199.5 Y147.609 E55.00592
G1 F4200 E47.00592
G0 F1600 X191.587 Y159.976
G1 F4200 E55.00592
G1 F1200 X196.219 Y162.65 E55.34391
G1 X195.506 Y162.396 E55.39174
G1 X194.718 Y162.056 E55.44597
G1 X193.988 Y161.685 E55.49772
G1 X193.29 Y161.271 E55.549
G1 X192.606 Y160.806 E55.60127
G1 X191.964 Y160.309 E55.65258
G1 X191.348 Y159.766 E55.70447
G1 X190.741 Y159.162 E55.75858
G1 X190.232 Y158.583 E55.8073
G1 X189.701 Y157.901 E55.86192
G1 X189.258 Y157.246 E55.91189
G1 X188.821 Y156.507 E55.96615
G1 X188.461 Y155.803 E56.01612
G1 X188.137 Y155.053 E56.06775
G1 X188.016 Y154.72 E56.09014
G1 X197.89 Y149.019 E56.81065
G1 X197.87 Y149.071 E56.81417
G1 X198.467 Y151.268 E56.95805
G1 X198.975 Y151.774 E57.00336
G1 X199.5 Y152.683 E57.06969
G1 X199.5 Y163.278 E57.73924
G1 X200.29 Y163.304 E57.78919
G1 X201.153 Y163.275 E57.84375
G1 X201.809 Y163.211 E57.88541
G1 X210.774 Y158.035 E58.53959
G1 X210.88 Y157.901 E58.55039
G1 X211.323 Y157.246 E58.60036
G1 X211.764 Y156.5 E58.65512
G1 X212.126 Y155.792 E58.70537
G1 X212.443 Y155.056 E58.75601
G1 X212.733 Y154.25 E58.81014
G1 X212.964 Y153.46 E58.86216
G1 X213.134 Y152.699 E58.91143
G1 X213.268 Y151.847 E58.96594
G1 X213.341 Y151.069 E59.01532
G1 X213.368 Y150.204 E59.07001
G1 X213.341 Y149.379 E59.12217
G1 X213.303 Y148.974 E59.14788
G1 X207.167 Y152.517 E59.59564
G1 X212.268 Y155.462 E59.96786
G1 F4200 E51.96786
;MESH:ktRACK5.stl
G0 F1600 X200.291 Y165.097
G0 X199.381 Y165.167
G0 X199.387 Y165.068
;TYPE:WALL-INNER
G1 F4200 E59.96786
G1 F1200 X200.291 Y165.097 E60.02501
G1 X201.254 Y165.065 E60.0859
G1 X202.183 Y164.975 E60.14489
G1 X203.077 Y164.834 E60.20208
G1 X203.989 Y164.63 E60.26114
G1 X204.886 Y164.369 E60.32017
G1 X205.792 Y164.041 E60.38106
G1 X206.622 Y163.682 E60.43821
G1 X207.456 Y163.257 E60.49736
G1 X208.284 Y162.765 E60.55823
G1 X209.055 Y162.239 E60.61721
G1 X209.77 Y161.684 E60.67441
G1 X210.47 Y161.067 E60.73338
G1 X211.131 Y160.406 E60.79245
G1 X211.748 Y159.705 E60.85146
G1 X212.321 Y158.968 E60.91046
G1 X212.846 Y158.194 E60.96956
G1 X213.321 Y157.39 E61.02857
G1 X213.746 Y156.558 E61.08761
G1 X214.116 Y155.701 E61.1466
G1 X214.433 Y154.821 E61.20571
G1 X214.694 Y153.925 E61.26469
G1 X214.898 Y153.014 E61.32368
G1 X215.044 Y152.09 E61.3828
G1 X215.131 Y151.16 E61.44183
G1 X215.161 Y150.227 E61.50082
G1 X215.131 Y149.293 E61.55987
G1 X215.044 Y148.363 E61.6189
G1 X214.898 Y147.439 E61.67801
G1 X214.694 Y146.528 E61.73701
G1 X214.433 Y145.632 E61.79599
G1 X214.116 Y144.752 E61.85509
G1 X213.746 Y143.895 E61.91408
G1 X213.321 Y143.063 E61.97312
G1 X212.846 Y142.259 E62.03214
G1 X212.321 Y141.486 E62.09119
G1 X211.748 Y140.747 E62.15028
G1 X211.131 Y140.048 E62.2092
G1 X210.47 Y139.386 E62.26832
G1 X209.768 Y138.768 E62.32742
G1 X209.006 Y138.18 E62.38825
G1 X208.258 Y137.672 E62.44539
G1 X207.454 Y137.196 E62.50443
G1 X206.621 Y136.772 E62.5635
G1 X205.738 Y136.391 E62.62427
G1 X204.885 Y136.084 E62.68156
G1 X203.989 Y135.823 E62.74054
G1 X203.078 Y135.619 E62.79953
G1 X202.154 Y135.473 E62.85865
G1 X201.202 Y135.386 E62.91906
G1 X200.283 Y135.357 E62.97717
G1 X199.327 Y135.388 E63.03761
G1 X198.398 Y135.478 E63.09659
G1 X197.504 Y135.619 E63.15379
G1 X196.592 Y135.823 E63.21285
G1 X195.695 Y136.084 E63.27188
G1 X194.789 Y136.412 E63.33277
G1 X193.959 Y136.772 E63.38994
G1 X193.126 Y137.196 E63.44901
G1 X192.297 Y137.688 E63.50993
G1 X191.526 Y138.214 E63.56891
G1 X190.811 Y138.769 E63.62611
G1 X190.112 Y139.386 E63.68503
G1 X189.45 Y140.048 E63.74419
G1 X188.833 Y140.747 E63.80311
G1 X188.26 Y141.486 E63.86221
G1 X187.735 Y142.259 E63.92126
G1 X187.26 Y143.063 E63.98027
G1 X186.836 Y143.895 E64.03928
G1 X186.465 Y144.752 E64.0983
G1 X186.148 Y145.632 E64.15741
G1 X185.887 Y146.528 E64.21638
G1 X185.683 Y147.439 E64.27538
G1 X185.537 Y148.363 E64.33449
G1 X185.45 Y149.294 E64.39358
G1 X185.421 Y150.227 E64.45257
G1 X185.45 Y151.159 E64.5115
G1 X185.537 Y152.09 E64.57059
G1 X185.683 Y153.014 E64.6297
G1 X185.887 Y153.925 E64.6887
G1 X186.148 Y154.821 E64.74767
G1 X186.465 Y155.701 E64.80678
G1 X186.836 Y156.558 E64.8658
G1 X187.26 Y157.39 E64.92481
G1 X187.735 Y158.194 E64.98382
G1 X188.26 Y158.968 E65.04293
G1 X188.833 Y159.705 E65.10192
G1 X189.45 Y160.407 E65.16098
G1 X190.133 Y161.086 E65.22184
G1 X190.812 Y161.685 E65.27906
G1 X191.575 Y162.273 E65.33994
G1 X192.323 Y162.781 E65.39708
G1 X193.127 Y163.257 E65.45612
G1 X193.96 Y163.682 E65.51522
G1 X194.844 Y164.062 E65.57602
G1 X195.696 Y164.369 E65.63325
G1 X196.592 Y164.63 E65.69223
G1 X197.503 Y164.834 E65.75123
G1 X198.427 Y164.98 E65.81034
G1 X199.387 Y165.068 E65.87126
G0 F1600 X199.41 Y164.699
;TYPE:WALL-OUTER
G1 F1200 X200.291 Y164.727 E65.92696
G1 X201.23 Y164.696 E65.98634
G1 X202.136 Y164.608 E66.04386
G1 X203.008 Y164.47 E66.09965
G1 X203.897 Y164.271 E66.15722
G1 X204.771 Y164.017 E66.21474
G1 X205.655 Y163.697 E66.27415
G1 X206.464 Y163.347 E66.32985
G1 X207.277 Y162.933 E66.38751
G1 X208.085 Y162.453 E66.4469
G1 X208.837 Y161.94 E66.50442
G1 X209.534 Y161.399 E66.56018
G1 X210.217 Y160.797 E66.61772
G1 X210.861 Y160.153 E66.67527
G1 X211.463 Y159.469 E66.73285
G1 X212.021 Y158.75 E66.79037
G1 X212.533 Y157.996 E66.84796
G1 X212.997 Y157.212 E66.90553
G1 X213.411 Y156.4 E66.96313
G1 X213.772 Y155.565 E67.02062
G1 X214.081 Y154.707 E67.07825
G1 X214.335 Y153.833 E67.13577
G1 X214.534 Y152.944 E67.19334
G1 X214.677 Y152.044 E67.25092
G1 X214.762 Y151.137 E67.30849
G1 X214.791 Y150.227 E67.36603
G1 X214.762 Y149.316 E67.42363
G1 X214.677 Y148.409 E67.4812
G1 X214.534 Y147.509 E67.53878
G1 X214.335 Y146.62 E67.59635
G1 X214.081 Y145.746 E67.65387
G1 X213.772 Y144.888 E67.7115
G1 X213.411 Y144.053 E67.76899
G1 X212.997 Y143.241 E67.82659
G1 X212.533 Y142.457 E67.88416
G1 X212.021 Y141.703 E67.94175
G1 X211.463 Y140.983 E67.99932
G1 X210.861 Y140.301 E68.05681
G1 X210.217 Y139.656 E68.1144
G1 X209.533 Y139.054 E68.17199
G1 X208.789 Y138.48 E68.23137
G1 X208.06 Y137.984 E68.28709
G1 X207.276 Y137.52 E68.34466
G1 X206.464 Y137.107 E68.40223
G1 X205.602 Y136.735 E68.46156
G1 X204.771 Y136.436 E68.51737
G1 X203.897 Y136.182 E68.57489
G1 X203.008 Y135.983 E68.63246
G1 X202.108 Y135.84 E68.69005
G1 X201.179 Y135.755 E68.749
G1 X200.283 Y135.727 E68.80565
G1 X199.351 Y135.757 E68.86458
G1 X198.445 Y135.845 E68.9221
G1 X197.573 Y135.983 E68.97789
G1 X196.684 Y136.182 E69.03546
G1 X195.81 Y136.436 E69.09298
G1 X194.926 Y136.756 E69.15239
G1 X194.117 Y137.107 E69.20812
G1 X193.304 Y137.52 E69.26574
G1 X192.496 Y138 E69.32513
G1 X191.744 Y138.513 E69.38266
G1 X191.047 Y139.054 E69.43842
G1 X190.365 Y139.656 E69.49591
G1 X189.72 Y140.301 E69.55355
G1 X189.118 Y140.983 E69.61104
G1 X188.56 Y141.703 E69.6686
G1 X188.048 Y142.457 E69.7262
G1 X187.584 Y143.241 E69.78377
G1 X187.171 Y144.053 E69.84134
G1 X186.809 Y144.888 E69.89885
G1 X186.5 Y145.746 E69.95648
G1 X186.246 Y146.62 E70.014
