;FLAVOR:Marlin
;TIME:703
;Filament used: 0.711948m, 0m
;Layer height: 0.2
;MINX:171.05
;MINY:132.262
;MINZ:0.4
;MAXX:228.95
;MAXY:167.738
;MAXZ:3.8
;Generated with Cura_SteamEngine 4.10.0
T0
M140 S50
M105
M190 S50
M104 S205
M105
M109 S205
M82 ;absolute extrusion mode
G28 ;Home
G1 Z15.0 F6000 ;Move the platform down 15mm
;Prime the extruder
G92 E0
G1 F200 E3
G92 E0
G92 E0
G92 E0
G1 F4200 E-8
;LAYER_COUNT:18
;LAYER:0
M107
G1 F600 Z0.8
G0 F1600 X172.058 Y142.383 Z0.8
;TYPE:SKIRT
G1 F600 Z0.4
G1 F4200 E0
G1 F1200 X172.46 Y141.991 E0.03548
G1 X172.914 Y141.66 E0.07099
G1 X173.41 Y141.397 E0.10647
G1 X173.903 Y141.216 E0.13965
G1 X175.184 Y140.842 E0.22399
G1 X177.776 Y140.047 E0.39532
G1 X180.363 Y139.17 E0.56794
G1 X182.905 Y138.23 E0.73921
G1 X185.43 Y137.213 E0.91123
G1 X187.908 Y136.133 E1.08205
G1 X190.392 Y134.965 E1.25552
G1 X191.222 Y134.551 E1.31413
G1 X192.234 Y134.052 E1.38543
G1 X192.35 Y133.997 E1.39355
G1 X193.025 Y133.691 E1.44038
G1 X193.373 Y133.546 E1.46421
G1 X194.03 Y133.297 E1.50861
G1 X194.378 Y133.178 E1.53185
G1 X195.273 Y132.903 E1.59102
G1 X195.531 Y132.835 E1.60788
G1 X196.279 Y132.657 E1.65647
G1 X196.593 Y132.593 E1.67672
G1 X197.262 Y132.475 E1.71965
G1 X197.677 Y132.416 E1.74614
G1 X198.379 Y132.337 E1.79078
G1 X198.75 Y132.307 E1.8143
G1 X199.498 Y132.27 E1.86163
G1 X199.926 Y132.262 E1.88868
G1 X200.576 Y132.271 E1.92976
G1 X201.004 Y132.292 E1.95684
G1 X201.722 Y132.347 E2.00235
G1 X202.234 Y132.403 E2.0349
G1 X202.819 Y132.485 E2.07223
G1 X203.356 Y132.58 E2.10669
G1 X203.931 Y132.702 E2.14383
G1 X204.371 Y132.809 E2.17245
G1 X204.963 Y132.97 E2.21122
G1 X205.339 Y133.085 E2.23607
G1 X206.084 Y133.339 E2.28581
G1 X206.453 Y133.477 E2.3107
G1 X207.056 Y133.726 E2.35193
G1 X207.448 Y133.903 E2.37911
G1 X209.207 Y134.761 E2.50279
G1 X210.478 Y135.385 E2.59227
G1 X212.968 Y136.526 E2.76535
G1 X215.44 Y137.577 E2.9351
G1 X218.004 Y138.583 E3.10916
G1 X220.523 Y139.487 E3.27828
G1 X223.121 Y140.338 E3.45105
G1 X225.841 Y141.137 E3.6302
G1 X226.153 Y141.233 E3.65083
G1 X226.676 Y141.436 E3.68628
G1 X227.166 Y141.711 E3.72179
G1 X227.612 Y142.053 E3.75731
G1 X228.005 Y142.455 E3.79283
G1 X228.336 Y142.908 E3.82829
G1 X228.601 Y143.404 E3.86382
G1 X228.792 Y143.932 E3.89931
G1 X228.906 Y144.482 E3.9348
G1 X228.948 Y145.22 E3.98152
G1 X228.95 Y145.33 E3.98847
G1 X228.95 Y154.318 E4.55646
G1 X228.94 Y155.046 E4.60247
G1 X228.892 Y155.606 E4.63799
G1 X228.765 Y156.153 E4.67347
G1 X228.562 Y156.677 E4.70898
G1 X228.287 Y157.167 E4.74449
G1 X227.945 Y157.613 E4.78001
G1 X227.544 Y158.005 E4.81545
G1 X227.09 Y158.337 E4.85099
G1 X226.595 Y158.601 E4.88644
G1 X226.097 Y158.784 E4.91997
G1 X224.816 Y159.158 E5.0043
G1 X222.224 Y159.953 E5.17563
G1 X219.637 Y160.83 E5.34826
G1 X217.095 Y161.77 E5.51953
G1 X214.57 Y162.787 E5.69155
G1 X212.092 Y163.867 E5.86237
G1 X209.608 Y165.035 E6.03583
G1 X208.778 Y165.449 E6.09445
G1 X207.766 Y165.948 E6.16575
G1 X207.65 Y166.003 E6.17386
G1 X206.975 Y166.309 E6.2207
G1 X206.627 Y166.454 E6.24452
G1 X205.97 Y166.703 E6.28892
G1 X205.592 Y166.833 E6.31418
G1 X204.874 Y167.055 E6.36168
G1 X204.487 Y167.161 E6.38703
G1 X203.742 Y167.34 E6.43545
G1 X203.501 Y167.39 E6.45101
G1 X202.674 Y167.535 E6.50407
G1 X202.287 Y167.59 E6.52877
G1 X201.639 Y167.662 E6.56997
G1 X201.25 Y167.693 E6.59463
G1 X200.503 Y167.73 E6.64189
G1 X200.073 Y167.738 E6.66907
G1 X199.424 Y167.729 E6.71009
G1 X198.996 Y167.708 E6.73717
G1 X198.14 Y167.641 E6.79143
G1 X197.877 Y167.61 E6.80816
G1 X197.077 Y167.496 E6.85923
G1 X196.822 Y167.45 E6.87561
G1 X196.05 Y167.291 E6.92542
G1 X195.63 Y167.191 E6.9527
G1 X195.034 Y167.029 E6.99173
G1 X194.661 Y166.915 E7.01638
G1 X193.916 Y166.661 E7.06612
G1 X193.553 Y166.525 E7.09061
G1 X192.95 Y166.277 E7.13182
G1 X192.551 Y166.097 E7.15948
G1 X190.792 Y165.237 E7.28321
G1 X189.553 Y164.629 E7.37043
G1 X187.032 Y163.474 E7.54567
G1 X184.56 Y162.423 E7.71541
G1 X181.996 Y161.417 E7.88947
G1 X179.477 Y160.513 E8.0586
G1 X176.879 Y159.662 E8.23136
G1 X174.156 Y158.862 E8.41071
G1 X173.845 Y158.766 E8.43128
G1 X173.321 Y158.563 E8.46679
G1 X172.832 Y158.287 E8.50227
G1 X172.386 Y157.945 E8.53779
G1 X171.994 Y157.543 E8.57327
G1 X171.663 Y157.089 E8.60878
G1 X171.399 Y156.593 E8.64429
G1 X171.208 Y156.065 E8.67977
G1 X171.095 Y155.514 E8.71532
G1 X171.052 Y154.793 E8.76096
G1 X171.05 Y154.67 E8.76873
G1 X171.05 Y145.615 E9.34096
G1 X171.06 Y144.949 E9.38305
G1 X171.109 Y144.389 E9.41857
G1 X171.236 Y143.842 E9.45406
G1 X171.44 Y143.318 E9.48959
G1 X171.716 Y142.829 E9.52508
G1 X172.058 Y142.383 E9.5606
G0 F1600 X172.431 Y142.539
G1 F1200 X172.829 Y142.182 E9.59438
G1 X173.274 Y141.888 E9.62809
G1 X174.009 Y141.581 E9.67842
G1 X175.29 Y141.207 E9.76276
G1 X177.901 Y140.406 E9.93535
G1 X180.508 Y139.522 E10.10931
G1 X183.038 Y138.587 E10.27976
G1 X185.552 Y137.574 E10.45104
G1 X188.067 Y136.478 E10.62441
G1 X190.57 Y135.301 E10.7992
G1 X191.39 Y134.892 E10.85711
G1 X192.402 Y134.393 E10.92841
G1 X193.182 Y134.038 E10.98257
G1 X193.508 Y133.902 E11.00489
G1 X194.265 Y133.616 E11.05603
G1 X194.49 Y133.541 E11.07102
G1 X195.373 Y133.27 E11.12939
G1 X195.619 Y133.204 E11.14548
G1 X196.261 Y133.05 E11.1872
G1 X196.659 Y132.967 E11.2129
G1 X197.328 Y132.849 E11.25583
G1 X197.72 Y132.793 E11.28085
G1 X198.422 Y132.714 E11.32549
G1 X198.769 Y132.686 E11.34749
G1 X199.517 Y132.649 E11.39482
G1 X199.92 Y132.642 E11.42029
G1 X200.57 Y132.651 E11.46137
G1 X200.975 Y132.67 E11.48699
G1 X201.693 Y132.725 E11.5325
G1 X202.182 Y132.78 E11.5636
G1 X202.767 Y132.862 E11.60093
G1 X203.278 Y132.952 E11.63371
G1 X203.842 Y133.071 E11.67014
G1 X204.271 Y133.176 E11.69805
G1 X204.863 Y133.337 E11.73682
G1 X205.216 Y133.445 E11.76015
G1 X206.041 Y133.727 E11.81525
G1 X206.308 Y133.828 E11.83329
G1 X207.011 Y134.12 E11.88139
G1 X207.281 Y134.244 E11.90017
G1 X209.039 Y135.102 E12.02379
G1 X210.323 Y135.732 E12.11417
G1 X212.772 Y136.855 E12.28443
G1 X215.337 Y137.945 E12.46055
G1 X217.866 Y138.937 E12.63222
G1 X220.386 Y139.842 E12.80143
G1 X223.026 Y140.706 E12.97697
G1 X225.729 Y141.5 E13.155
G1 X226.041 Y141.596 E13.17563
G1 X226.538 Y141.791 E13.20937
G1 X227.001 Y142.057 E13.24311
G1 X227.418 Y142.39 E13.27684
G1 X227.782 Y142.782 E13.31064
G1 X228.083 Y143.223 E13.34438
G1 X228.314 Y143.704 E13.3781
G1 X228.472 Y144.214 E13.41184
G1 X228.56 Y144.908 E13.45605
G1 X228.57 Y145.33 E13.48273
G1 X228.57 Y154.313 E14.0504
G1 X228.56 Y155.041 E14.09641
G1 X228.512 Y155.573 E14.13017
G1 X228.386 Y156.092 E14.16392
G1 X228.184 Y156.586 E14.19764
G1 X227.911 Y157.045 E14.23139
G1 X227.572 Y157.458 E14.26516
G1 X227.175 Y157.815 E14.2989
G1 X226.729 Y158.11 E14.33269
G1 X226.245 Y158.334 E14.36639
G1 X225.991 Y158.419 E14.38332
G1 X224.71 Y158.793 E14.46765
G1 X222.099 Y159.594 E14.64024
G1 X219.492 Y160.478 E14.8142
G1 X216.962 Y161.413 E14.98465
G1 X214.448 Y162.426 E15.15594
G1 X211.933 Y163.522 E15.32931
G1 X209.43 Y164.699 E15.5041
G1 X208.61 Y165.108 E15.562
G1 X207.598 Y165.607 E15.63331
G1 X206.818 Y165.962 E15.68746
G1 X206.492 Y166.098 E15.70979
G1 X205.734 Y166.384 E15.76098
G1 X205.48 Y166.47 E15.77793
G1 X204.762 Y166.692 E15.82542
G1 X204.398 Y166.791 E15.84926
G1 X203.653 Y166.97 E15.89768
G1 X203.436 Y167.015 E15.91169
G1 X202.493 Y167.179 E15.97217
G1 X202.245 Y167.212 E15.98798
G1 X201.597 Y167.284 E16.02919
G1 X201.232 Y167.314 E16.05233
G1 X200.485 Y167.351 E16.09959
G1 X200.078 Y167.358 E16.12532
G1 X199.429 Y167.349 E16.16633
G1 X199.025 Y167.33 E16.19189
G1 X198.294 Y167.274 E16.23822
G1 X197.93 Y167.234 E16.26136
G1 X197.141 Y167.121 E16.31173
G1 X196.899 Y167.078 E16.32727
G1 X196.127 Y166.919 E16.37708
G1 X195.73 Y166.824 E16.40287
G1 X195.025 Y166.631 E16.44906
G1 X194.784 Y166.555 E16.46503
G1 X193.959 Y166.273 E16.52013
G1 X193.697 Y166.174 E16.53783
G1 X193.094 Y165.926 E16.57903
G1 X192.718 Y165.756 E16.60511
G1 X189.693 Y164.275 E16.81795
G1 X187.228 Y163.145 E16.98931
G1 X184.663 Y162.055 E17.16544
G1 X182.134 Y161.063 E17.33711
G1 X179.614 Y160.158 E17.50632
G1 X176.974 Y159.294 E17.68186
G1 X174.268 Y158.499 E17.86009
G1 X173.957 Y158.403 E17.88066
G1 X173.46 Y158.208 E17.91439
G1 X172.998 Y157.941 E17.94812
G1 X172.58 Y157.608 E17.98189
G1 X172.217 Y157.216 E18.01565
G1 X171.917 Y156.774 E18.04941
G1 X171.685 Y156.293 E18.08316
G1 X171.529 Y155.782 E18.11692
G1 X171.442 Y155.103 E18.16018
G1 X171.43 Y154.67 E18.18755
G1 X171.43 Y145.62 E18.75946
G1 X171.44 Y144.954 E18.80155
G1 X171.488 Y144.423 E18.83525
G1 X171.615 Y143.904 E18.86901
G1 X171.818 Y143.41 E18.90276
G1 X172.092 Y142.951 E18.93654
G1 X172.431 Y142.539 E18.97026
G0 F1600 X172.468 Y143.081
G1 F1200 X172.804 Y142.704 E19.00217
G1 X173.195 Y142.385 E19.03406
G1 X173.631 Y142.131 E19.06595
G1 X174.116 Y141.946 E19.09875
G1 X175.355 Y141.584 E19.18032
G1 X178.034 Y140.762 E19.35741
G1 X180.62 Y139.885 E19.52997
G1 X183.171 Y138.942 E19.70184
G1 X185.736 Y137.909 E19.87659
G1 X188.21 Y136.831 E20.04713
G1 X190.714 Y135.654 E20.22198
G1 X191.558 Y135.233 E20.28158
G1 X192.57 Y134.734 E20.35288
G1 X193.339 Y134.384 E20.40628
G1 X193.642 Y134.257 E20.42704
G1 X194.299 Y134.008 E20.47144
G1 X194.602 Y133.904 E20.49168
G1 X195.474 Y133.636 E20.54933
G1 X195.708 Y133.574 E20.56463
G1 X196.436 Y133.401 E20.61192
G1 X196.725 Y133.341 E20.63057
G1 X197.394 Y133.223 E20.6735
G1 X197.762 Y133.171 E20.69699
G1 X198.565 Y133.082 E20.74804
G1 X198.787 Y133.066 E20.76211
G1 X199.639 Y133.025 E20.81601
G1 X199.915 Y133.022 E20.83345
G1 X200.565 Y133.031 E20.87453
G1 X200.946 Y133.049 E20.89864
G1 X201.664 Y133.104 E20.94414
G1 X202.129 Y133.156 E20.97371
G1 X202.714 Y133.238 E21.01104
G1 X203.657 Y133.419 E21.07172
G1 X204.171 Y133.543 E21.10514
G1 X204.855 Y133.73 E21.14995
G1 X205.093 Y133.805 E21.16572
G1 X205.91 Y134.084 E21.22027
G1 X206.163 Y134.179 E21.23735
G1 X206.766 Y134.428 E21.27858
G1 X207.115 Y134.585 E21.30276
G1 X208.872 Y135.443 E21.42633
G1 X210.166 Y136.078 E21.51742
G1 X212.636 Y137.21 E21.68912
G1 X215.16 Y138.283 E21.86243
G1 X217.739 Y139.295 E22.03751
G1 X220.313 Y140.218 E22.21031
G1 X222.871 Y141.057 E22.38044
G1 X225.617 Y141.863 E22.56129
G1 X225.929 Y141.959 E22.58192
G1 X226.398 Y142.145 E22.6138
G1 X226.832 Y142.403 E22.64571
G1 X227.22 Y142.726 E22.67761
G1 X227.552 Y143.106 E22.7095
G1 X227.82 Y143.534 E22.74141
G1 X228.017 Y143.999 E22.77333
G1 X228.138 Y144.489 E22.80522
G1 X228.189 Y145.241 E22.85285
G1 X228.19 Y154.308 E23.42584
G1 X228.18 Y155.036 E23.47184
G1 X228.133 Y155.538 E23.50371
G1 X228.007 Y156.027 E23.53562
G1 X227.806 Y156.49 E23.56752
G1 X227.535 Y156.916 E23.59942
G1 X227.199 Y157.293 E23.63134
G1 X226.809 Y157.613 E23.66322
G1 X226.372 Y157.867 E23.69516
G1 X225.884 Y158.054 E23.72818
G1 X224.645 Y158.416 E23.80975
G1 X221.966 Y159.238 E23.98684
G1 X219.38 Y160.115 E24.1594
G1 X216.829 Y161.058 E24.33127
G1 X214.264 Y162.091 E24.50602
G1 X211.79 Y163.169 E24.67656
G1 X209.286 Y164.346 E24.85141
G1 X208.442 Y164.767 E24.91101
G1 X207.43 Y165.266 E24.98231
G1 X206.661 Y165.616 E25.03571
G1 X206.358 Y165.743 E25.05647
G1 X205.61 Y166.025 E25.10699
G1 X205.367 Y166.107 E25.12319
G1 X204.649 Y166.329 E25.17069
G1 X204.309 Y166.422 E25.19296
G1 X203.564 Y166.601 E25.24138
G1 X203.37 Y166.641 E25.2539
G1 X202.543 Y166.786 E25.30696
G1 X202.203 Y166.834 E25.32866
G1 X201.461 Y166.916 E25.37583
G1 X201.213 Y166.934 E25.39154
G1 X200.361 Y166.975 E25.44545
G1 X200.084 Y166.978 E25.46295
G1 X199.435 Y166.969 E25.50397
G1 X199.054 Y166.951 E25.52808
G1 X198.323 Y166.895 E25.57441
G1 X197.983 Y166.858 E25.59602
G1 X197.296 Y166.761 E25.63986
G1 X196.975 Y166.705 E25.66046
G1 X196.11 Y166.526 E25.71628
G1 X195.829 Y166.457 E25.73456
G1 X195.233 Y166.295 E25.77359
G1 X194.907 Y166.195 E25.79514
G1 X194.09 Y165.916 E25.8497
G1 X193.842 Y165.822 E25.86646
G1 X193.239 Y165.574 E25.90766
G1 X192.885 Y165.414 E25.93221
G1 X189.849 Y163.929 E26.14579
G1 X187.364 Y162.79 E26.31854
G1 X184.84 Y161.717 E26.49185
G1 X182.261 Y160.705 E26.66693
G1 X179.687 Y159.782 E26.83973
G1 X177.129 Y158.943 E27.00986
G1 X174.38 Y158.136 E27.19091
G1 X174.069 Y158.04 E27.21148
G1 X173.6 Y157.854 E27.24336
G1 X173.166 Y157.595 E27.2753
G1 X172.779 Y157.272 E27.30716
G1 X172.447 Y156.891 E27.33909
G1 X172.18 Y156.463 E27.37097
G1 X171.983 Y155.998 E27.40288
G1 X171.862 Y155.508 E27.43478
G1 X171.812 Y154.769 E27.48159
G1 X171.81 Y154.67 E27.48784
G1 X171.81 Y145.626 E28.05937
G1 X171.82 Y144.96 E28.10147
G1 X171.868 Y144.458 E28.13333
G1 X171.994 Y143.969 E28.16524
G1 X172.196 Y143.506 E28.19717
G1 X172.468 Y143.081 E28.22905
G1 F4200 E20.22905
;MESH:ktRACK5b.stl
G0 F1600 X175.584 Y145.584
G0 X179.29 Y151.242
G0 X180.329 Y152.067
G0 X180.359 Y151.972
;TYPE:WALL-INNER
G1 F4200 E28.22905
G1 F1200 X180.783 Y152.062 E28.25645
G1 X181.217 Y152.062 E28.28387
G1 X181.641 Y151.972 E28.31126
G1 X182.037 Y151.795 E28.33867
G1 X182.388 Y151.54 E28.36609
G1 X182.677 Y151.218 E28.39343
G1 X182.894 Y150.843 E28.42081
G1 X183.028 Y150.431 E28.44819
G1 X183.073 Y150 E28.47558
G1 X183.028 Y149.569 E28.50296
G1 X182.894 Y149.157 E28.53034
G1 X182.677 Y148.782 E28.55772
G1 X182.388 Y148.46 E28.58506
G1 X182.037 Y148.205 E28.61248
G1 X181.641 Y148.028 E28.63989
G1 X181.217 Y147.938 E28.66728
G1 X180.783 Y147.938 E28.69471
G1 X180.359 Y148.028 E28.7221
G1 X179.963 Y148.205 E28.74951
G1 X179.613 Y148.458 E28.7768
G1 X179.322 Y148.781 E28.80427
G1 X179.106 Y149.157 E28.83168
G1 X178.972 Y149.569 E28.85906
G1 X178.927 Y150 E28.88644
G1 X178.972 Y150.431 E28.91383
G1 X179.106 Y150.843 E28.9412
G1 X179.322 Y151.219 E28.96861
G1 X179.613 Y151.542 E28.99608
G1 X179.963 Y151.795 E29.02337
G1 X180.359 Y151.972 E29.05078
G0 F1600 X180.474 Y151.618
;TYPE:WALL-OUTER
G1 F1200 X180.822 Y151.692 E29.07327
G1 X181.178 Y151.692 E29.09576
G1 X181.526 Y151.618 E29.11825
G1 X181.851 Y151.473 E29.14074
G1 X182.139 Y151.264 E29.16322
G1 X182.376 Y151 E29.18564
G1 X182.554 Y150.692 E29.20812
G1 X182.664 Y150.354 E29.23059
G1 X182.701 Y150 E29.25308
G1 X182.664 Y149.646 E29.27557
G1 X182.554 Y149.308 E29.29803
G1 X182.376 Y149 E29.32051
G1 X182.139 Y148.736 E29.34293
G1 X181.851 Y148.527 E29.36542
G1 X181.526 Y148.382 E29.38791
G1 X181.178 Y148.308 E29.41039
G1 X180.822 Y148.308 E29.43289
G1 X180.474 Y148.382 E29.45537
G1 X180.149 Y148.527 E29.47786
G1 X179.862 Y148.735 E29.50026
G1 X179.623 Y149 E29.52281
G1 X179.446 Y149.308 E29.54526
G1 X179.336 Y149.646 E29.56773
G1 X179.299 Y150 E29.59022
G1 X179.336 Y150.354 E29.61271
G1 X179.446 Y150.692 E29.63517
G1 X179.623 Y151 E29.65762
G1 X179.862 Y151.265 E29.68017
G1 X180.149 Y151.473 E29.70257
G1 X180.474 Y151.618 E29.72506
G0 F1600 X180.67 Y151.659
G0 X180.582 Y152.068
G0 X180.571 Y152.118
G0 X218.329 Y152.067
G0 X218.359 Y151.972
;TYPE:WALL-INNER
G1 F1200 X218.783 Y152.062 E29.75245
G1 X219.217 Y152.062 E29.77988
G1 X219.641 Y151.972 E29.80727
G1 X220.037 Y151.795 E29.83468
G1 X220.387 Y151.542 E29.86197
G1 X220.678 Y151.219 E29.88945
G1 X220.894 Y150.843 E29.91685
G1 X221.028 Y150.431 E29.94423
G1 X221.073 Y150 E29.97161
G1 X221.028 Y149.569 E29.999
G1 X220.894 Y149.157 E30.02638
G1 X220.678 Y148.781 E30.05378
G1 X220.387 Y148.458 E30.08125
G1 X220.037 Y148.205 E30.10854
G1 X219.641 Y148.028 E30.13596
G1 X219.217 Y147.938 E30.16335
G1 X218.783 Y147.938 E30.19077
G1 X218.359 Y148.028 E30.21816
G1 X217.963 Y148.205 E30.24558
G1 X217.613 Y148.458 E30.27287
G1 X217.322 Y148.781 E30.30034
G1 X217.106 Y149.157 E30.32774
G1 X216.972 Y149.569 E30.35512
G1 X216.927 Y150 E30.38251
G1 X216.972 Y150.431 E30.40989
G1 X217.106 Y150.843 E30.43727
G1 X217.322 Y151.219 E30.46467
G1 X217.613 Y151.542 E30.49215
G1 X217.963 Y151.795 E30.51944
G1 X218.359 Y151.972 E30.54685
G0 F1600 X218.474 Y151.618
;TYPE:WALL-OUTER
G1 F1200 X218.822 Y151.692 E30.56933
G1 X219.178 Y151.692 E30.59183
G1 X219.526 Y151.618 E30.61431
G1 X219.851 Y151.473 E30.6368
G1 X220.138 Y151.265 E30.6592
G1 X220.377 Y151 E30.68175
G1 X220.554 Y150.692 E30.7042
G1 X220.664 Y150.354 E30.72666
G1 X220.701 Y150 E30.74916
G1 X220.664 Y149.646 E30.77165
G1 X220.554 Y149.308 E30.79411
G1 X220.377 Y149 E30.81656
